packages/foundations/assets/icons/functional/images/devices/printer_16.svg

<svg width="16" height="16" viewBox="0 0 16 16" fill="none" xmlns="http://www.w3.org/2000/svg">
<g clip-path="url(#clip0_185_780)">
<path fill-rule="evenodd" clip-rule="evenodd" d="M10.4 1.60001C10.8 1.60001 11.2 1.95201 11.2 2.40001V3.20001H13.1249C13.9 3.20001 14.4 3.90001 14.4 4.65001V9.72501C14.4 10.5 13.9249 11.2 13.1249 11.2H11.2V13.6C11.2 14.05 10.85 14.4 10.4 14.4H5.59998C5.17502 14.4 4.79998 14.1 4.79998 13.6V11.2H2.87502C2.09998 11.2 1.59998 10.475 1.59998 9.72501V4.65001C1.59998 3.90001 2.04998 3.20001 2.87502 3.20001H4.79998V2.40001C4.79998 1.95001 5.17502 1.60001 5.59998 1.60001H10.4ZM9.59998 9.60001H6.39998V12.8H9.59998V9.60001ZM12.8 4.80001H3.19998V9.60001H4.79998V8.80001C4.79998 8.40001 5.19998 8.00001 5.59998 8.00001H10.4C10.8 8.00001 11.2 8.40001 11.2 8.80001V9.60001H12.8V4.80001Z" fill="#1A1C1F"/>
</g>
<defs>
<clipPath id="clip0_185_780">
<rect width="16" height="16" fill="white"/>
</clipPath>
</defs>
</svg>

<svg xmlns="http://www.w3.org/2000/svg" width="16" height="16" fill="none"><g clip-path="url(#a)"><path fill="#1A1C1F" fill-rule="evenodd" d="M10.4 1.6c.4 0 .8.352.8.8v.8h1.925c.775 0 1.275.7 1.275 1.45v5.075c0 .775-.475 1.475-1.275 1.475H11.2v2.4c0 .45-.35.8-.8.8H5.6c-.425 0-.8-.3-.8-.8v-2.4H2.875C2.1 11.2 1.6 10.475 1.6 9.725V4.65c0-.75.45-1.45 1.275-1.45H4.8v-.8c0-.45.375-.8.8-.8zm-.8 8H6.4v3.2h3.2zm3.2-4.8H3.2v4.8h1.6v-.8c0-.4.4-.8.8-.8h4.8c.4 0 .8.4.8.8v.8h1.6z" clip-rule="evenodd"/></g><defs><clipPath id="a"><path fill="#fff" d="M0 0h16v16H0z"/></clipPath></defs></svg>
